X:21009 
T:BARRACK HILL  
B:DMI.0410
Z:Nordberg/Black
N:A jig version of "Tralee Jail"!
R:jig
%Q:1/4=160
M:6/8
L:1/8
K:G
"A dorian"
e2A A2f|e2d Bcd|e2A A2B|G2A Bcd|
e2A A2f|e2d Bcd|e2d g2B|A3 A3:|
e2d efg|a2b g2e|d2e d2B|d2e dcB|
[1 e2d efg|a2b g2e|d2B g2B|A3 A3:|
[2 e2d e2f|g2a b2a|g2e d2B|A2a agf||\
"final"HA3z3|]

%%%

